!!!!SEGMENT: pl-kj--bj-muz-1603-iii-2--006_zelenski-wladyslaw--sechs-charakterstucke-op-17-no-6-abschied.krn
!!!cenid: 18xx:3685
!!!COM: Żeleński, Władysław
!!!COM-rismID: pe41024455
!!!CDT: 1837/07/06-1921/01/23
!!!CNT: Polish
!!!GTL: Sechs Charakterstücke op. 17
!!!OTL: No. 6 Abschied
!!!OMV: 006
!!!PDT: 1872
!!!AGN:
!!!SMS-siglum: PL-Kj
!!!SMS-shelfmark: BJ Muz. 1603 III 2
!!!SMS-shelfwork: 001-006 G
!!!SMS-variant:
!!!SMS-altvar:
!!!NIFC-rismSourceID:
!!!NIFC-rismChildID:
!!!NIFC-islandoraID: none
!!!URL-pdf-islandora:
!!!URL-scan: https://polona.pl/item/sechs-charakterstucke-fur-pianoforte-op-17-h-2,MTIzNzQyODQ2/0 @EN{Scan on Polona} @PL{Skany w portalu Polona}
!!!IIIF:
!!!ONB-nifc:
!!!AIN: 2 forte
!!!key: B
**kern	**kern	**dynam
*part2	*part1	*part1
*staff2	*staff1	*
*I"PIANOFORTE	*I"PIANOFORTE	*
*Iforte	*Iforte	*
*ICklav	*ICklav	*
*IGsolo	*IGsolo	*
*clefF4	*clefG2	*
*k[f#c#g#d#a#]	*k[f#c#g#d#a#]	*
*B:	*B:	*
*M2/2	*M2/2	*
*met(c|)	*met(c|)	*
=1	=1	=1
!	!LO:TX:a:t=Appassionato ma non troppo vivo.	!
1r	2r	.
*ped	*	*
.	4.f# 4.F#/	f
.	8f# 8F#/	.
=2	=2	=2
1r	[1f# [1F#	.
=3	=3	=3
1r	2f#] 2F#/]	.
.	4.f# 4.F#/	pp
.	8f# 8F#/	.
=4	=4	=4
1r	[1f# [1F#	.
=5	=5	=5
*	*^	*
*Xtuplet	*	*Xtuplet	*
!	!LO:TX:a:i:t=ben legato la melodia	!	!LO:HP:a
12BBB/L	2f#/]	12F#\L]	<
12BB/	.	12d#\	.
12FF#/J	.	12B\J	.
12BBB/L	.	12F#\L	.
12BB/	.	12d#\	.
12FF#/J	.	12B\J	.
12BBB/L	[2b/	12B\L	.
12BB/	.	12f#\	.
12FF#/J	.	12d#\J	.
12BBB/L	.	12B\L	.
12BB/	.	12f#\	.
12FF#/J	.	12d#\J	.
*Xped	*	*	*
!!LO:LB:g=original
=6	=6	=6	=6
12BBB/L	4b] 4B/	12B\L	.
*Xped	*	*	*
12BB/	.	12f#\	.
12FF#/J	.	12d#\J	.
12BBB/L	(4cc# 4c#/	12c#\L	.
12FF#/	.	12f#\	.
12BB/J	.	12e\J	.
12BB\L	4ee 4e/	12e\L	.
12c#\	.	12a#\	.
12F#\J	.	12f#\J	.
12BB\L	4dd# 4d#/)	12d#\L	[
12B\	.	12b\	.
12F#\J	.	12f#\J	.
=7	=7	=7	=7
12EE/L	4r	4ryy	.
12E/	.	.	.
12C#/J	.	.	.
!	!	!	!LO:HP:a
12DD#/L	(4g# 4G#/	12G#\L	<
12E/	.	12e\	.
12C#/J	.	12c#\J	.
12CC#/L	4a# 4A#/	12A#\L	.
12C#/	.	12f#\	.
12FF#/J	.	12e\J	.
12BBB/L	4b 4B/	12B\L	[
12BB/	.	12f#\	.
12FF#/J	.	12e\J	.
=8	=8	=8	=8
*ped	*	*	*
!	!	!	!LO:HP:a
12AAA#/L	2cc#/)	12c#\L	>
12FF#/	.	12f#\	.
12AA#/J	.	12e\J	.
12AA#\L	.	12c#\L	.
12A#\	.	12f#\	.
12F#\J	.	12e\J	.
12AA#/L	[2f#/	12F#\L	]
12AA#/	.	12e\	.
12FF#/J	.	12c#\J	.
12AAA#/L	.	12F#\L	.
12AA#/	.	12e\	.
*Xped	*	*	*
12FF#/J	.	12c#\J	.
=9	=9	=9	=9
*ped	*	*	*
!	!	!	!LO:HP:a
12BBB/L	2f#/]	12F#\L	<
12FF#/	.	12d#\	.
12BB/J	.	12B\J	.
12BBB/L	.	12F#\L	.
12FF#/	.	12d#\	.
12BB/J	.	12B\J	.
12AAn\L	[2b/	12B\L	.
12A#\	.	12f#\	.
12F#\J	.	12d#\J	.
12AA\L	.	12B\L	.
12A#\	.	12f#\	.
*Xped	*	*	*
12F#\J	.	12d#\J	.
!!LO:LB:g=original
=10	=10	=10	=10
*	*	*ped	*
12GG#\L	4b] 4B/	12B\L	.
12G#\	.	12f#\	.
12F#\J	.	12dn\J	.
12GG#\L	4b 4B/	12B\L	.
12F#\	.	12f#\	.
12G#\J	.	12d\J	.
12B\L	4gg# 4g#/	12g#\L	.
12dn\	.	12ddn\	.
12B\J	.	12b\J	.
12An\L	[4ff# 4f#/	12f#\L	.
12d\	.	12dd\	.
*	*	*Xped	*
12A\J	.	12b\J	.
=11	=11	=11	=11
12G#\L	4ff#] 4f#/	12f#\L	.
12dn\	.	12b\	.
12G#\J	.	12g#\J	.
8C#/	4ee#X 4e#X/	12e#\L	.
.	.	12b\	.
8r	.	.	.
.	.	12g#\J	.
12r	4b 4B/	12B\L	.
(<12C#/L	.	12g#\	.
12GG#/J	.	12e#\J	.
12CC#/L	[4ddn 4dn/	12dn\L	.
12C#/	.	12b\	.
12GG#/J	.	12g#\J	.
=12	=12	=12	=12
12EE#X/L	4dd] 4dn/	12dn\L	>
12E#X/	.	12b\	.
12C#/J	.	12g#\J	.
12EE#/L	4ddn 4d/	12d\L	.
12E#/	.	12b\	.
12C#/J	.	12g#\J	.
12EE#/L	4cc# 4c#/	12c#\L	.
12E#/	.	12b\	.
12C#/J	.	12g#\J	.
12EE#/L	4b 4B/	12B\L	]
12E#/	.	12g#\	.
12C#/J	.	12d\J	.
=13	=13	=13	=13
*ped	*	*	*
12EEn/L	4r	4ryy	p
12C#/	.	.	.
12E/J)	.	.	.
4r	(4f# 4F#~/	12F#\L	.
.	.	12c#\	.
.	.	12A#X\J	.
*Xped	*clefF4	*	*
4B#X 4BB#X~\	12r	4ryy	.
.	12F#\L	.	.
.	12E\J	.	.
4r	4c#~/	12C#\L	.
.	.	12F#\	.
.	.	12E\J)	.
*	*v	*v	*
!!LO:LB:g=original
=14	=14	=14
*	*ped	*
12r	[2.f# [2.B [2.F#\	.
(12DD#/L	.	.
12BB/J	.	.
12D#\L	.	.
12F#\	.	.
12B\J	.	.
12d#\L	.	.
12B\	.	.
12F#\J	.	.
12D#/L	8f#] 8B] 8F#\]	.
12BB/	.	.
.	8r	.
*	*Xped	*
12FF#/J)	.	.
=15	=15	=15
*	*^	*
*ped	*	*	*
!LO:TUP:b:problem=klamra łukowa	!	!	!
(12EE/L	4r	4ryy	p
12C#/	.	.	.
12E/J)	.	.	.
*	*clefG2	*	*
4r	4f# 4F#~/	(12F#\L	.
.	.	12c#\	.
.	.	12A#\J	.
*clefG2	*	*	*
*Xped	*	*	*
4b#X 4B#X/	12r	4ryy	.
.	12f#\L	.	.
.	12e\J	.	.
4r	4cc#~/	12c#\L	.
.	.	12f#\	.
.	.	12e\J)	.
*	*v	*v	*
*clefF4	*	*
=16	=16	=16
*	*ped	*
!	!	!LO:DY:a:t=più sfz
12r	[2.gg# 2.b 2.g#\	sfz
(12DDn/L	.	.
12BB/J	.	.
12Dn\L	.	.
12F#\	.	.
12B\J	.	.
12dn\L	.	.
12B\	.	.
12F#\J	.	.
12D/L	4gg#] 4b 4f#'\	.
12BB/	.	.
*	*Xped	*
12FF#/J)	.	.
!!LO:LB:g=original
=17	=17	=17
*	*^	*
(12CC#/L	4r	4ryy	.
12C#/	.	.	.
12AA#/J	.	.	.
8CC#/)	(4a# 4A#/	12A#\L	<
.	.	12f#\	.
8r	.	.	.
.	.	12c#\J	.
12r	4dd# 4d#/	12d#\L	.
12A#\L	.	12a#\	.
12F#\J	.	12f#\J	.
(12C#\L	4cc# 4c#/	12c#\L	.
12A#\	.	12a#\	.
12F#\J	.	12f#\J	.
=18	=18	=18	=18
8C#/)	4b#X 4B#X/	12B#\L	.
.	.	12g#\	.
8r	.	.	.
.	.	12f#\J	[
12r	4bn 4Bn/	12Bn\L	>
(12C#/L	.	12g#\	.
12GG#/J	.	12f#\J	.
12CC#/L	4a# 4A#/	12A#\L	.
12C#/	.	12e#X\	.
12AA#/J	.	12c#\J	.
12CC#/L	4g# 4G#/)	12G#\L	.
12C#/	.	12e#\	.
12BB/J)	.	12c#\J	]
*	*v	*v	*
=19	=19	=19
*^	*	*
*ped	*	*	*
(4AA#/	[1FF#	(12f#L 12F#/	<
.	.	12A#/	.
.	.	12c#/J	.
4C#~</	.	12f#/L	.
.	.	12a#/	.
.	.	12cc#/J	.
4G#~</	.	12ff#\L	.
.	.	12aa#\	.
.	.	12ccc#\J	.
4F#~</	.	12fff#\L	.
.	.	12ccc#\	.
.	.	12aa#\J	.
=20	=20	=20	=20
4E~</	2FF#\]	12ff#\L	.
.	.	12cc#\	.
.	.	12a#\J	.
4C#~</	.	12f#\L	.
.	.	12a#\	.
.	.	12ff#\J	.
4GG#~/	2FF#\	12f#\L	.
.	.	12b\	.
.	.	12ff#\J	.
4AA#~</)	.	12f#\L	.
.	.	12cc#\	.
*Xped	*	*	*
.	.	12ff#\J)	[
*v	*v	*	*
!!LO:PB:g=original
=21	=21	=21
*ped	*	*
2FF# 2BBB/	12r	f
.	(12f#/L	.
.	12b/J	.
.	12dd#\L	.
.	12ff#\	.
.	12bb\J	.
!	!	!
[2B [2F# [2D#\	12fff#\L	.
!	!LO:TX:b:i:t=ben marcato	!
.	12ddd#\	.
.	12bb\J	.
.	12ff#\L	.
.	12dd#\	.
.	12b\J)	.
=22	=22	=22
*	*^	*
4B] 4F#] 4D#\]	(12f#\L	2ryy	.
*Xped	*	*	*
.	12b\	.	.
.	12dd#\J	.	.
(4c# 4F# 4E'\	12ff#\L	.	.
.	12aa#\	.	.
.	12fff#\J	.	.
4e 4B 4G#'\	4eee/	12eee\L	.
.	.	12bb\	.
.	.	12ee\J	.
4d# 4B 4F#'\)	4ddd#/	12ddd#\L	.
.	.	12bb\	.
.	.	12dd#\J)	.
*	*v	*v	*
=23	=23	=23
*ped	*	*
4EE/	12r	<
.	(12g#\L	.
.	12b\J	.
(4G# 4E'\	12ee\L	.
.	12gg#\	.
.	12bb\J	.
*Xped	*	*
4A# 4G# 4E 4C#'\	12ggg#\L	.
.	12eee\	.
.	12ccc#\J	.
4B 4G# 4E 4BB'\)	12gg#\L	[
.	12ee\	.
.	12cc#\J	.
=24	=24	=24
*ped	*	*
(2c#: 2G#: 2E: 2AA#:\	12g#\L	.
.	12cc#\	>
.	12ee\J	.
.	12gg#\L	.
.	12ccc#\	.
.	12ggg#\J	.
*Xped	*	*
2F# 2E 2AA#'>/)	12fff#\L	.
.	12eee\	.
.	12ccc#\J	.
.	12ff#\L	.
.	12ee\	.
.	12cc#\J)	]]
!!LO:LB:g=original
=25	=25	=25
*ped	*	*
2FF# 2BBB/	12r	.
.	(12f#/L	.
.	12b/J	.
.	12dd#\L	.
.	12ff#\	.
.	12bb\J	.
[2B [2F# [2D#\	12fff#\L	.
.	12ddd#\	.
.	12bb\J	.
.	12ff#\L	.
.	12dd#\	.
.	12b\J	.
=26	=26	=26
*^	*	*
*Xped	*	*	*
4B] 4F#\] 4D#\]	4ryy	12b\L	.
.	.	12dd#\	.
.	.	12ff#\J	.
(4B/	4B 4F# 4D#\	12bb\L	<
.	.	12ddd#\	.
.	.	12fff#\J	.
4g#:/	2B: 2G#: 2Dn:\	12bbb\L	.
.	.	12ggg#\	.
.	.	12fff#\J	.
[4f#/)	.	12bb\L	.
.	.	12gg#\	.
.	.	12ff#\J)	[
=27	=27	=27	=27
*ped	*	*	*
!	!	!	!LO:DY:b=2:rj
4f#/]	4CC#\	(8b\L	f
.	.	8ddn\J	<
(4e#X/	2.B 2.G#\	12gg#\L	.
.	.	12bb\	.
.	.	12dddn\J	.
4B/	.	12bbb\L	.
.	.	12ggg#\	.
.	.	12ddd\J	.
[4dn/)	.	12bb\L	.
.	.	12gg#\	.
.	.	12dd\J	[
=28	=28	=28	=28
4d/]	1G# 1E#X	12b\L	.
.	.	12ddn\	.
*Xped	*	*	*
.	.	12gg#\J	>
(4dn/	.	12bb\L	.
.	.	12dddn\	.
.	.	12ggg#\J	.
4c#/	.	12bbb\L	.
.	.	12ggg#\	.
.	.	12ddd\J	.
4B/)	.	12bb\L	]
.	.	12gg#\	.
.	.	12dd\J)	.
!!LO:LB:g=original
=29	=29	=29	=29
*ped	*	*	*
4EEn/	4ryy	12r	p
.	.	(12f#/L	.
.	.	12a#/J	.
!LO:N:vis=2.	!	!	!
(4F#/	2.F# 2.E\	12cc#\L	<
.	.	12ff#\	.
.	.	12aa#\J	.
*Xped	*	*	*
4B#X/	.	12fff#\L	.
.	.	12ccc#\	.
.	.	12aa#\J	.
4c#/)	.	12ff#\L	[
.	.	12cc#\	.
.	.	12a#\J)	.
*v	*v	*	*
=30	=30	=30
*ped	*	*
(2.f#: 2.B: 2.F#: 2.D#:\	(12b\L	sfz
.	12dd#\	.
.	12ff#\J	.
.	12bb\L	.
.	12ddd#\	.
.	12fff#\J	.
.	12bbb\L	.
.	12fff#\	.
.	12ddd#\J	.
*Xped	*	*
4B 4F# 4D#'\)	12bb\L	.
.	12ff#\	.
.	12dd#\J)	.
=31	=31	=31
*^	*	*
4GG#/	4ryy	12r	p
.	.	(12ddn\L	.
.	.	12ee\J	.
*clefG2	*	*	*
(4f#/	2.B 2.G#\	12bb\L	<
.	.	12dddn\	.
.	.	12eee\J	.
4d#/	.	12bbb\L	.
.	.	12eee\	.
.	.	12ddd\J	.
4e/)	.	12bb\L	.
.	.	12ee\	.
.	.	12dd\J)	[[
*v	*v	*	*
=32	=32	=32
*ped	*	*
(2.cc#: 2.e: 2.c#: 2.An:/	12r	sfz
.	(12ee\L	.
.	12aan\J	.
.	12cc#\L	.
.	12ee\	.
.	12aa\J	.
.	12ccc#\L	.
.	12aa\	.
.	12ee\J	.
4e 4c# 4A'/)	12cc#/L	.
.	12an/	.
*Xped	*	*
.	12e/J)	.
*clefF4	*	*
!!LO:LB:g=original
=33	=33	=33
*ped	*	*
12r	(2.ddd# 2.aa#X 2.dd#\	ff
(12FF##X/L	.	.
12D#/J	.	.
12F##X\L	.	.
12A#\	.	.
12d#\J	.	.
12a#\L	.	.
12d#\	.	.
12A#\J	.	.
!	!LO:TX:b:i:t=con gran passione	!
12A#\L	4ccc# 4dd# 4cc#'\)	.
12D#\	.	.
*Xped	*	*
12AA#\J	.	.
=34	=34	=34
*	*^	*
8GG#/)	(4ccc# 4cc#/	12cc#\L	.
.	.	12ff##X\	.
8r	.	.	.
.	.	12dd#\J	.
*clefG2	*	*	*
12r	4bb 4b/	12b\L	.
(12g#/L	.	12gg#\	.
12d#/J	.	12dd#\J	.
12A#/L	4aa# 4a#/	12a#\L	.
12d#/	.	12dd#\	.
12A#/J	.	12cc#\J	.
12B/L	4gg# 4g#/)	12g#\L	.
12d#/	.	12dd#\	.
12B/J)	.	12b\J	.
*	*v	*v	*
=35	=35	=35
12r	(2.aa# 2.ee#X 2.a#\	.
*clefF4	*	*
*ped	*	*
(12CC##X/L	.	.
12AA#/J	.	.
12C##X\L	.	.
12E#X\	.	.
12A#\J	.	.
12e#X\L	.	.
12A#\	.	.
12E#\J	.	.
12E#/L	4gg# 4a# 4g#'\)	.
12AA#/	.	.
*Xped	*	*
12EE/J	.	.
=36	=36	=36
*	*^	*
8DD#/)	(4gg# 4g#/	12g#\L	.
.	.	12cc##X\	.
8r	.	.	.
.	.	12a#\J	>
12r	4ff# 4f#/	12f#\L	.
(12d#\L	.	12dd#\	.
12A#\J	.	12a#\J	.
12E#X\L	4ee#X 4e#X/	12e#\L	.
12A#\	.	12a#\	.
12E#\J	.	12g#\J	.
12F#\L	4dd# 4d#/)	12d#\L	.
12A#\	.	12a#\	.
12F#\J	.	12f#\J	]
!!LO:LB:g=original
=37	=37	=37	=37
!	!LO:TX:b:i:t=espress.	!	!
8GG#/)	(4cc# 4c#/	12c#\L	.
.	.	12f##X\	.
8r	.	.	.
.	.	12d#\J	.
12r	4b 4B/	12B\L	.
12G#\L	.	12g#\	.
12D#\J	.	12d#\J	.
(12AA#/L	4a# 4A#/	12A#\L	.
12D#/	.	12d#\	.
12AA#/J	.	12c#\J	.
12BB/L	4g# 4G#/)	12G#\L	.
12D#/	.	12d#\	.
12BB/J	.	12B\J	.
=38	=38	=38	=38
8AA#/)	(4f# 4F#/	12F#\L	.
.	.	12c##X\	.
8r	.	.	.
.	.	12A#\J	.
!	!	!	!LO:HP:t=dimin.
12r	4e#X 4E#X/	12E#\L	>
(12AA#/L	.	12c##\	.
12EE#X/J	.	12A#\J	.
12AAA#/L	4b 4B/	12B\L	.
12AA#/	.	12e#\	.
12EE#/J	.	12c##\J	.
12AAA#/L	4a# 4A#/)	12A#\L	.
12EE#/	.	12e#\	.
12AA#/J	.	12c##\J	.
=39	=39	=39	=39
12DD#/L	(2g#/	12G#\L	>
12D#/	.	12c##X\	.
12AA#/J	.	12A#\J	.
12DD#/L	.	12G#\L	.
12D#/	.	12c##\	.
12AA#/J)	.	12A#\J	]
*	*ped	*	*
(<12DD#/L	4f# 4F#/)	4ryy	.
!	!	!	!LO:HP:b=2
12AA#/	.	.	<
12D#/J	.	.	.
4ryy	12F#</L	4ra	.
!	!LO:TX:a:t=r.	!	!
.	12A#</	.	.
.	12d#</J	.	.
=40	=40	=40	=40
4ryy	12f#</L	1ree	.
.	12d#</	.	.
.	12A#</J	.	[
!	!	!	!LO:HP:b=2
12ryy	12F#</	.	>
!LO:TX:a:t=l.	!	!	!
12A#\L	6ryy	.	.
12F#\J	.	.	.
12D#\L	2ryy	.	.
12F#\	.	.	.
12D#\J	.	.	.
12AA#/L	.	.	]
12D#/	.	.	.
*	*Xped	*	*
12AA#/J)	.	.	.
!!LO:PB:g=original
=41	=41	=41	=41
*^	*	*	*
*ped	*	*	*	*
!	!	!	!	!
(16DDn/LL	[4DDn^\	2r	2ryy	pp <
16EE#X/	.	.	.	.
16FF#/	.	.	.	.
16GG#/JJ	.	.	.	.
16AAn/LL	8DD\]	.	.	.
16AA#X/	.	.	.	.
16BB/	8ryy	.	.	.
16C#/JJ	.	.	.	[
!	!	!	!	!LO:DY:rj:t=poco sfz
16Dn\LL)	2ryy	4r	[2f# [2B [2F#\	sfz
(16D\	.	.	.	.
16F#\	.	.	.	.
16B\JJ	.	.	.	.
8dn\)	.	16r	.	.
!	!	!LO:TX:a:i:t=legg.	!	!
.	.	(16f#/LL	.	.
8r	.	16ff#/	.	.
.	.	16ff#/JJ	.	.
*v	*v	*	*	*
=42	=42	=42	=42
16r	8fff#/)	2f#] 2B] 2F#\]	.
(16dn\LL	.	.	.
16B\	8r	.	.
16F#\JJ	.	.	.
16Dn/LL	4r	.	.
16D/	.	.	.
16BB/	.	.	.
16FF#/JJ	.	.	.
*Xped	*	*	*
!	!LO:TUP:a:problem=klamra łukowa	!	!
16DDn/LL	6f# 6F#~/	2B\	<
16BB/	.	.	.
16GGn/	.	.	.
.	6g# 6G#~/	.	.
16FF#/JJ	.	.	.
16DD/LL	.	.	.
16BB/	.	.	.
.	6a# 6A#~/	.	.
16GG/	.	.	[
16FF#/JJ	.	.	.
=43	=43	=43	=43
*ped	*	*	*
!	!	!	!LO:DY:a
16CC#/LL	4b 4gn 4e 4B/	4ryy	sfz
16E/	.	.	.
16BB/	.	.	.
16GGn/JJ	.	.	.
*	*	*8va	*
8CC#/)	4bbb/	(16eee\LL	.
.	.	16gggn\	.
8r	.	16eee\	.
.	.	16bb\JJ	.
*	*	*X8va	*
!	!	!	!LO:DY:b=2
4e: 4B: 4Gn: 4C#:\	4bb/	16ee\LL	sfz
.	.	16ggn\	.
.	.	16ee\	.
.	.	16b\JJ	.
4r	4b/	16e\LL	.
.	.	16gn\	.
.	.	16e\	.
.	.	16B\JJ	.
!!LO:LB:g=original
=44	=44	=44	=44
16r	8b\)	4ryy	.
(16e\LL	.	.	.
16B\	8r	.	.
16Gn\JJ	.	.	.
*Xped	*	*	*
16C#/LL	(4b 4B/	2.e\	>
16E/	.	.	.
16BB/	.	.	.
16GGn/JJ	.	.	.
16CC#/LL	4an 4An/	.	.
16E/	.	.	.
16BB/	.	.	.
16GG/JJ	.	.	.
16CC#/LL	4gn 4Gn/	.	]
16E/	.	.	.
16BB/	.	.	.
16GG/JJ)	.	.	.
=45	=45	=45	=45
*^	*	*	*
*ped	*	*	*	*
(16DDn/LL	[4DDn^\	4f# 4F#/)	2ryy	<
16EE#X/	.	.	.	.
16FF#/	.	.	.	.
16GG#/JJ	.	.	.	.
16AAn/LL	8DD\]	4r	.	.
16AA#X/	.	.	.	.
16BB/	8ryy	.	.	.
16C#/JJ	.	.	.	[
16Dn\LL)	2ryy	4r	[2f# [2B [2F#^>\	.
(16D\	.	.	.	.
16F#\	.	.	.	.
16B\JJ	.	.	.	.
8dn\)	.	16r	.	.
!	!	!LO:TX:a:i:t=legg.	!	!
.	.	(16f#/LL	.	.
8r	.	16ff#/	.	.
.	.	16ff#/JJ	.	.
*v	*v	*	*	*
=46	=46	=46	=46
16r	8fff#/)	2f#] 2B] 2F#\]	.
(16dn\LL	.	.	.
16B\	8r	.	.
16F#\JJ	.	.	.
16Dn/LL	4r	.	.
16D/	.	.	.
16BB/	.	.	.
16FF#/JJ	.	.	.
*Xped	*	*	*
!	!LO:TUP:a:problem=klamra łukowa	!	!
16DDn/LL	6f# 6F#~/	2B\	<
16BB/	.	.	.
16GGn/	.	.	.
.	6g#X 6G#X~/	.	.
16FF#/JJ	.	.	.
16DD/LL	.	.	.
16BB/	.	.	.
.	6a#X 6A#X~/	.	.
16GG/	.	.	[
16FF#/JJ	.	.	.
!!LO:LB:g=original
=47	=47	=47	=47
*ped	*	*	*
!	!	!	!LO:DY:rj
16CC#/LL	4b 4gn 4e 4B/	4ryy	sfz
16E/	.	.	.
16BB/	.	.	.
16GGn/JJ	.	.	.
*	*	*8va	*
8CC#/)	4bbb/	(16eee\LL	.
.	.	16gggn\	.
8r	.	16eee\	.
.	.	16bb\JJ	.
*	*	*X8va	*
4e: 4B: 4Gn: 4C#:\	4bb/	16ee\LL	.
.	.	16gg\	.
.	.	16ee\	.
.	.	16b\JJ	.
4r	4b/	16e\LL	.
.	.	16gn\	.
.	.	16e\	.
.	.	16B\JJ	.
=48	=48	=48	=48
16r	8b\)	4ryy	.
(16e\LL	.	.	.
16B\	8r	.	.
16Gn\JJ	.	.	.
*Xped	*	*	*
16C#/LL	(4b 4B/	2.e\	>
16E/	.	.	.
16BB/	.	.	.
16GGn/JJ	.	.	.
16CC#/LL	4an 4An/	.	.
16E/	.	.	.
16BB/	.	.	.
16GG/JJ	.	.	.
16CC#/LL	4gn 4Gn/	.	]
16E/	.	.	.
16BB/	.	.	.
16GG/JJ)	.	.	.
=49	=49	=49	=49
*ped	*	*	*
(12BBB#X/L	4f# 4F#/)	2ryy	.
12D#/	.	.	.
12AAn/J	.	.	.
12BBB#/L	4r	.	.
12AA/	.	.	.
12D#/J	.	.	.
12BB#X\L	[2ff#/	12f#\L	<
12d#\	.	12dd#\	.
12An\J	.	12an\J	.
12BB#\L	.	12f#\L	.
12d#\	.	12dd#\	.
12A\J)	.	12a\J	[
!!LO:LB:g=original
=50	=50	=50	=50
!	!	!LO:TX:b:t=cresc._:problem=dynamics with extention lines	!LO:HP:t=cresc._
(12C#\L	(4ff#/]	12f#\L	<
12d#\	.	12b#X\	.
12G#\J	.	12g#\J	.
12C#\L	4ee/	12e\L	.
12c#\	.	12cc#\	.
12G#\J	.	12g#\J	.
12D#\L	4dd#/	12d#\L	.
12G#\	.	12g#\	.
12D#\J	.	12f#\J	.
12E\L	4cc#/	12c#\L	.
12G#\	.	12g#\	.
12E\J	.	12e\J	.
=51	=51	=51	=51
12FF#/L	4b/	12B\L	.
12G#/	.	12e#X\	.
12C#/J	.	12c#\J	.
12FF#/L	4an/	12An\L	.
12F#/	.	12f#\	.
12C#/J	.	12c#\J	.
12GG#/L	4g#/	12G#\L	.
12C#/	.	12c#\	.
12GG#/J	.	12B\J	.
12AA#/L	4f#/)	12F#\L	.
12C#/	.	12c#\	.
12AA#/J	.	12A\J	[[
=52	=52	=52	=52
!	!LO:TX:b:i:t=espress.	!	!
8GG#/)	(4en/	12En\L	.
.	.	12B#X\	.
8r	.	.	.
.	.	12G#\J	.
12r	4d#/	12D#\L	.
(>12GG#/L	.	12B#\	.
12DD#/J	.	12G#\J	.
12GGG#/L	4an/	12An\L	.
12GG#/	.	12d#\	.
12DD#/J	.	12B#\J	.
12GGG#/L	4g#/	12G#\L	.
12GG#/	.	12d#\	.
12DD#/J)	.	12B#\J	.
!!LO:LB:g=original
=53	=53	=53	=53
(12CC#/L	2f#/	12F#\L	>
12C#/	.	12B#X\	.
12GG#/J	.	12G#\J	.
12CC#/L	.	12F#\L	.
12C#/	.	12B#\	.
12GG#/J	.	12G#\J	]
*ped	*	*	*
12CC#/L	4e 4E/)	4ryy	.
12GG#/	.	.	.
12C#/J	.	.	.
!	!LO:TX:a:t=r	!	!
4ryy	12E</L	4ra	.
.	12G#</	.	.
.	12c#</J	.	.
=54	=54	=54	=54
4ryy	12e</L	1ree	.
.	12c#</	.	.
.	12G#</J	.	.
12ryy	12E</	.	.
!LO:TX:a:t=l	!	!	!
12G#\L	6ryy	.	.
12E\J	.	.	.
12C#\L	2ryy	.	.
12E\	.	.	.
12C#\J	.	.	.
12GG#/L	.	.	.
12C#/	.	.	.
*Xped	*	*	*
12GG#/J)	.	.	.
=55	=55	=55	=55
*ped	*	*	*
12CC#/L	4r	4ryy	p
12AAn/	.	.	.
12E/J	.	.	.
4r	4an 4An~/	12An\L	.
.	.	12gn\	.
.	.	12e\J	.
*Xped	*	*	*
4d# 4D#~\	12r	4ryy	.
*	*clefF4	*	*
.	12An\L	.	.
.	12Gn\J	.	.
4r	4e 4E~/	12E\L	.
.	.	12A\	.
.	.	12G\J	.
*	*v	*v	*
!!LO:PB:g=original
=56	=56	=56
12r	(2.f# 2.An 2.F#^\	<
*ped	*	*
(<12DDn/L	.	.
12AAn/J	.	.
12F#\	.	.
!LO:TX:a:t=r	!	!
12An/L	.	.
12d/J	.	.
12e/L	.	[ >
12f#/	.	.
12e/J	.	.
*	*clefG2	*
!	!LO:TX:a:t=l	!
12d</L	4an> 4f#>'/)	.
12A</	.	.
*Xped	*	*
12F#</J)	.	]]
=57	=57	=57
*	*^	*
*ped	*	*	*
N(>12CC#/L	4r	4ryy	.
12AAn/	.	.	.
12E/J	.	.	.
4r	4an 4An~/	12An\L	.
.	.	12gn\	.
.	.	12e\J	.
*clefG2	*	*	*
*Xped	*	*	*
4dd#X 4d#X~/	12r	4ryy	.
.	12a/L	.	.
.	12g/J	.	.
4r	4ee 4e~/	12e\L	.
.	.	12a\	.
.	.	12g\JN)	.
*	*v	*v	*
*clefF4	*	*
=58	=58	=58
12r	(2.ff# 2.an 2.f#^\	<
*ped	*	*
(<12DDn/L	.	.
12AAn/J	.	.
12F#\	.	.
!LO:TX:a:t=r	!	!
12An/L	.	.
12d/J	.	[
12e/L	.	.
12f#/	.	>
12e/J	.	.
!	!LO:TX:a:t=l	!
12d</L	4a> 4f#>'/)	.
12A</	.	.
*Xped	*	*
12F#</J)	.	]]
!!LO:LB:g=original
=59	=59	=59
*	*^	*
*ped	*	*	*
N(12EE#X/L	4r	4ryy	.
12C#/	.	.	.
12G#X/J	.	.	.
4ryy	4cc# 4c#~/	12c#\L	.
.	.	12b\	.
.	.	12g#\J	.
*Xped	*	*	*
4f##X 4F##X~\	12r	4ryy	.
.	12c#/L	.	.
.	12B/J	.	.
4r	4g# 4G#~/	12G#\L	.
.	.	12c#\	.
.	.	12B\JN)	.
*	*v	*v	*
=60	=60	=60
12r	(2.an 2.c# 2.An/	.
*ped	*	*
(<12FF#/L	.	.
12C#/J	.	.
12A#\	.	.
!LO:TX:a:t=r	!	!
12c#</L	.	.
12f#</J	.	.
12g#</L	.	.
12an</	.	.
12g#</J	.	.
!	!LO:TX:a:t=l	!
12f#</L	4cc#> 4a>'/)	.
12c#</	.	.
*Xped	*	*
12Any</J)	.	.
=61	=61	=61
*	*^	*
*ped	*	*	*
!LO:N:t=P:problem=łamany łuk	!	!	!
N(12EE#X/L	4r	4ryy	.
12C#/	.	.	.
12G##X/J	.	.	.
4ryy	4cc# 4c#~/	12c#\L	.
.	.	12b\	.
.	.	12g#\J	.
*clefG2	*	*	*
*Xped	*	*	*
4ff##X 4f##X~\	12r	4ryy	.
.	12cc#\L	.	.
.	12b\J	.	.
4r	4gg# 4g#~/	12g#\L	.
.	.	12cc#\	.
.	.	12b\JN)	.
*	*v	*v	*
*clefF4	*	*
!!LO:LB:g=original
=62	=62	=62
12r	(2.aan 2.cc# 2.an\	.
*ped	*	*
(<12FF#/L	.	.
12C#/J	.	.
12An\	.	.
!LO:TX:a:t=r	!	!
12c#</L	.	.
12f#</J	.	.
12g#</L	.	.
12an</	.	.
12g#</J	.	.
!	!LO:TX:a:t=l	!
12f#</L	4cc#> 4a>'\)	.
*Xped	*	*
12c#</	.	.
12Any</J)	.	.
=63	=63	=63
*	*^	*
*ped	*	*	*
N(12GG#\L	4ryy	4ryy	.
12E\	.	.	.
12B\J	.	.	.
4ryy	4ee 4e~/	12e\L	.
.	.	12ddn\	.
.	.	12b\J	.
*Xped	*	*	*
4a#X 4A#X~\	4ryy	12r	.
.	.	12e/L	.
.	.	12dn/J	.
4ryy	4b 4B~/	12B\L	.
.	.	12e\	.
.	.	12d\JN)	.
=64	=64	=64	=64
*ped	*	*	*
N(12AA#\L	4r	4ryy	.
12F#\	.	.	.
12c#\J	.	.	.
4ryy	4ff# 4f#~/	12f#\L	.
.	.	12ee\	.
.	.	12cc#\J	.
*Xped	*	*	*
4b#X 4B#X~\	12r	4ryy	.
.	12f#/L	.	.
.	12e/J	.	.
4ryy	4cc# 4c#~/	12c#\L	.
.	.	12f#\	.
.	.	12e\JN)	.
!!LO:LB:g=original
=65	=65	=65	=65
12r	2.dddn 2.gg#^ 2.ddn\	2.ryy	sfz
*ped	*	*	*
(<12BBn\L	.	.	.
12G#\J	.	.	.
12Bn\L	.	.	.
12B\	.	.	.
12g#>\J	.	.	.
12b>\L	.	.	.
12g#>\	.	.	.
12dn>\J	.	.	.
*Xped	*	*	*
12B\L	(4gg#^/	12g#\L	.
12dn\	.	12ffn\	.
12B\J)	.	12dd\J	.
=66	=66	=66	=66
*ped	*	*	*
(12c#\L	4aan/	12an\L	.
12e\	.	12ee\	.
12c#\J	.	12cc#\J	.
*Xped	*	*	*
12B\L	4ggn/	12gn\L	.
12dn\	.	12ddn\	.
12B\J	.	12b\J	.
*ped	*	*	*
12An\L	4ff#/	12f#\L	.
12c#\	.	12cc#\	.
12A\J	.	12a\J	.
*Xped	*	*	*
12Gn\L	4ee/)	12e\L	.
12A\	.	12cc#\	.
12G\J)	.	12a\J	.
=67	=67	=67	=67
12r	2.aan 2.ddn^ 2.an\	2.ryy	.
*ped	*	*	*
(12F#\L	.	.	.
12dn\J	.	.	.
12e\L	.	.	.
12f#\	.	.	.
12e\J	.	.	.
*Xped	*	*	*
12d\L	.	.	.
12An\	.	.	.
12Gn\J	.	.	.
12F#\L	(4dd#X/	12d#X\L	.
12A\	.	12ccn\	.
12F#\J)	.	12a\J	.
!!LO:LB:g=original
=68	=68	=68	=68
*ped	*	*	*
(12Gn\L	4ee/	12e\L	<
12B\	.	12b\	.
12G\J	.	12gn\J	.
*Xped	*	*	*
12F#\L	4ff#/	12f#\L	.
12An\	.	12dd#\	.
12F#\J	.	12an\J	.
*ped	*	*	*
12E\L	4ggn/)	12gn\L	.
12G\	.	12ee\	.
12E\J	.	12b\J	[
*Xped	*	*	*
12GGn\L	(4b/	12B\L	.
12G\	.	12g\	.
12E\J	.	12e\J	.
*	*v	*v	*
=69	=69	=69
*ped	*	*
12AAn\L)	4ddn 4f# 4dn/)	.
(12An\	.	.
12F#\J	.	.
12AA/L	4r	.
12AA/	.	.
12FF#/J	.	.
!	!	!LO:DY:a
12AAAn/L	[2dd 2f# [2d^/	sfz
12FF#/	.	.
12AA/J	.	.
12AA\L	.	.
12F#\	.	.
12A\J	.	.
=70	=70	=70
*	*^	*
*Xped	*	*	*
12AAn\L)	4dd] 4d\]	2gn/	.
(12An\	.	.	.
12E\J	.	.	.
*ped	*	*	*
!	!LO:TX:b:i:t=ritard.	!	!
12AA/L	(>4cc# 4c#'>\	.	>
12AA/	.	.	.
12EE/J	.	.	.
12AAAn/L	4ggn 4cc#' 4g\	2ryy	.
12EE/	.	.	.
12AA/J	.	.	.
12AA\L	4cc# 4g 4c#'/)	.	]
12E\	.	.	.
*Xped	*	*	*
12A\J	.	.	.
*	*v	*v	*
!!LO:PB:g=original
=71||	=71||	=71||
*k[]	*k[]	*
*	*^	*
16AA-X/LL)	4ff 4cc 4f\	2ryy	pp <
*ped	*	*	*
(16BBB/	.	.	.
16CC/	.	.	.
16DD-X/JJ	.	.	.
16DDn/LL	4r	.	.
16EE/	.	.	.
16FF/	.	.	.
16GG/JJ	.	.	[
16AA-X/LL	4r	[2c [2F [2C\	.
16AA-/	.	.	.
16C/	.	.	.
16F/JJ	.	.	.
8A-X\)	16r	.	.
!	!LO:TX:a:i:t=legg.	!	!
.	(16c/LL	.	.
8r	16cc/	.	.
.	16cc/JJ	.	.
=72	=72	=72	=72
16r	8ccc/)	2c] 2F] 2C\]	.
(16A-X\LL	.	.	.
16F\	8r	.	.
16C\JJ	.	.	.
16AA-X/LL	4r	.	.
16AA-/	.	.	.
16FF/	.	.	.
16CC/JJ	.	.	.
*Xped	*clefF4	*	*
!	!LO:TUP:a:problem=klamra łukowa	!	!
16AAA-X/LL	6c 6C~/	2F\	<
16FF/	.	.	.
16DD-X/	.	.	.
.	6d 6D~/	.	.
16CC/JJ	.	.	.
16AAA-/LL	.	.	.
16FF/	.	.	.
.	6e 6E~/	.	.
16DD-/	.	.	[
16CC/JJ	.	.	.
=73	=73	=73	=73
*ped	*	*	*
16GGG/LL	4f 4d-X 4B-X 4F\	4ryy	sfz
16BB-X/	.	.	.
16FF/	.	.	.
16DD-X/JJ	.	.	.
*	*clefG2	*	*
8GGG/)	(4fff/	16bb-X\LL	.
.	.	16ddd-X\	.
8r	.	16bb-\	.
.	.	16ff\JJ	.
4B-X: 4F: 4D-X: 4GG:\	4ff/	16b-X\LL	.
.	.	16dd-X\	.
.	.	16b-\	.
.	.	16f\JJ	.
4r	4f/	16B-X\LL	.
.	.	16d-X\	.
.	.	16B-\	.
.	.	16F\JJ	.
!!LO:LB:g=original
=74	=74	=74	=74
16r	8f/)	4ryy	.
16B-X\LL	.	.	.
16F\	8r	.	.
16D-X\JJ	.	.	.
*Xped	*	*	*
16GG/LL	(4f 4F/	2.B-X\	>
16BB-X/	.	.	.
16FF/	.	.	.
16DD-X/JJ	.	.	.
16GGG/LL	4e-X 4E-X/	.	.
16BB-/	.	.	.
16FF/	.	.	.
16DD-/JJ	.	.	.
16GGG/LL	4d-X 4D-X/	.	.
16BB-/	.	.	.
16FF/	.	.	.
16DD-/JJ	.	.	]
=75	=75	=75	=75
*^	*	*	*
*ped	*	*	*	*
16AAA-X/LL	[2AAA-\	4c 4C/)	2ryy	<
16BBBn/	.	.	.	.
16CC/	.	.	.	.
16DD-X/JJ	.	.	.	.
16DDn/LL	.	4r	.	.
16EE/	.	.	.	.
16FF/	.	.	.	.
16GG/JJ	.	.	.	[
(16AA-X/LL	4AAA-\]	4r	[2c [2F [2C^>\	.
16AA-/	.	.	.	.
16C/	.	.	.	.
16F/JJ	.	.	.	.
8A-X\)	4ryy	16r	.	.
!	!	!LO:TX:a:i:t=legg.	!	!
.	.	(16c/LL	.	.
8r	.	16cc/	.	.
.	.	16cc/JJ	.	.
*v	*v	*	*	*
=76	=76	=76	=76
16r	8ccc/)	2c] 2F] 2C\]	.
16A-X\LL	.	.	.
16F\	8r	.	.
16C\JJ	.	.	.
16AA-X/LL	4r	.	.
16AA-/	.	.	.
16FF/	.	.	.
16CC/JJ	.	.	.
*Xped	*clefF4	*	*
!	!LO:TUP:a:problem=klamra łukowa	!	!
16AAA-X/LL	6c 6C~/	2F\	<
16FF/	.	.	.
16DD-X/	.	.	.
.	6d 6D~/	.	.
16CC/JJ	.	.	.
16AAA-/LL	.	.	.
16FF/	.	.	.
.	6e 6E~/	.	.
16DD-/	.	.	[
16CC/JJ	.	.	.
!!LO:LB:g=original
=77	=77	=77	=77
*ped	*	*	*
16AAA--/LL	4f 4d-X 4c-X 4F\	4ryy	sfz
16C-X/	.	.	.
16FF/	.	.	.
16DD-X/JJ	.	.	.
*	*clefG2	*	*
8AAA--/	4fff/	16ccc\LL	.
.	.	16ddd-X\	.
8r	.	16ccc\	.
.	.	16ff\JJ	.
4c-X: 4F: 4D-X: 4AA--:\	4ff/	16cc-X\LL	.
.	.	16dd-X\	.
.	.	16cc-\	.
.	.	16f\JJ	.
4r	4f/	16c-X\LL	.
.	.	16d-X\	.
.	.	16c-\	.
.	.	16F\JJ	.
=78	=78	=78	=78
16r	8f/	4ryy	.
(16Bn\LL	.	.	.
16E#X\	8r	.	.
16C#X\JJ	.	.	.
*Xped	*	*	*
!	!	!	!LO:HP:a
16GG/LL	(<4e#X 4E#X/	2.c#X [2.Bn\	<
16BB/	.	.	.
16EE#X/	.	.	.
16CC#X/JJ	.	.	.
16GGG/LL	4en 4En/	.	.
16BB/	.	.	.
16EE#/	.	.	.
16CC#/JJ	.	.	.
16GGG/LL	4e#X 4E#X/	.	[
16BB/	.	.	.
16EE#/	.	.	.
16CC#/JJ	.	.	.
=79	=79	=79	=79
*ped	*	*	*
!	!LO:TX:b:i:t=cresc. sempre	!	!
16FFF/LL)	4f#X 4d 4B] 4F#X/)	2ryy	<
(16EE#X/	.	.	.
16FF#X/	.	.	.
16GG#X/JJ	.	.	.
!	!	!	!
16AA/LL	4r	.	.
16AA#X/	.	.	.
16BB/	.	.	.
16C#X/JJ	.	.	[
16D\LL)	4r	[2f# [2d [2B [2F#\	.
(16D\	.	.	.
16F#X\	.	.	.
16B\JJ	.	.	.
8d\)	16r	.	.
.	(16f#/LL	.	.
8r	16ff#X/	.	.
.	16ff#/JJ	.	.
!!LO:LB:g=original
=80	=80	=80	=80
16r	8fff#X/)	2f#] 2d] 2B] 2F#\]	.
(16d\LL	.	.	.
16A\	8r	.	.
16F#X\JJ	.	.	.
16D/LL	4r	.	.
16D/	.	.	.
16BB/	.	.	.
*Xped	*	*	*
16GG/JJ	.	.	.
!	!LO:TUP:a:problem=klamra łukowa	!	!
16FF#X/LL	6f#X 6F#X~/	2d\	<
16D/	.	.	.
16BB/	.	.	.
.	6g#X 6G#X~/	.	.
16GG/JJ	.	.	.
16FF#/LL	.	.	.
16D/	.	.	.
.	6a#X 6A#X~/	.	.
16BB/	.	.	[
16FF#/JJ	.	.	.
=81	=81	=81	=81
*ped	*	*	*
16EE/LL	4b 4g 4c#X 4B/	4ryy	sfz
16G/	.	.	.
16C#X/	.	.	.
16BB/JJ	.	.	.
*	*	*8va	*
8EE/)	4bbb/	(16eee\LL	.
.	.	16ggg\	.
8r	.	16eee\	.
.	.	16bb\JJ	.
*	*	*X8va	*
4g: 4c#X: 4B: 4E:\	4bb/	16ee\LL	.
.	.	16gg\	.
.	.	16ee\	.
.	.	16b\JJ	.
4r	4b/	16e\LL	.
.	.	16g\	.
.	.	16e\	.
.	.	16B\JJ	.
=82	=82	=82	=82
16r	8b\)	4ryy	.
(16e\LL	.	.	.
16B\	8r	.	.
*Xped	*	*	*
16G\JJ	.	.	.
16C#X/LL	(4b 4B/	2.e\	.
16E/	.	.	.
16BB/	.	.	.
16GG/JJ	.	.	.
16CC#X/LL	4a 4A/	.	.
16E/	.	.	.
16BB/	.	.	.
16GG/JJ	.	.	.
16CC#/LL	4g 4G/	.	.
16E/	.	.	.
16BB/	.	.	.
16GG/JJ)	.	.	.
!!LO:LB:g=original
=83	=83	=83	=83
*^	*	*	*
*ped	*	*	*	*
(16DD/LL	[2DD\	4f#X 4B 4F#X/)	2ryy	.
16EE#X/	.	.	.	.
16FF#X/	.	.	.	.
16GG#X/JJ	.	.	.	.
16AA/LL	.	4r	.	.
16AA#X/	.	.	.	.
16BB/	.	.	.	.
16C#X/JJ	.	.	.	.
16D/LL)	8DD\]	4r	[2f# [2d [2B [2F#\	.
(16D/	.	.	.	.
16F#X/	4.ryy	.	.	.
16B/JJ	.	.	.	.
8d\)	.	16r	.	.
.	.	(16f#/LL	.	.
8r	.	16ff#X/	.	.
.	.	16ff#/JJ	.	.
*v	*v	*	*	*
=84	=84	=84	=84
16r	8fff#X/)	2f#] 2d] 2B] 2F#\]	.
(16d\LL	.	.	.
16B\	8r	.	.
16F#X\JJ	.	.	.
16D/LL	4r	.	.
16D/	.	.	.
16BB/	.	.	.
16GG/JJ	.	.	.
*Xped	*	*	*
!	!LO:TUP:a:problem=klamra łukowa	!	!
16FF#X/LL	6f#X 6F#X~/	2d\	<
16D/	.	.	.
16BB/	.	.	.
.	6g#X 6G#X~/	.	.
16GG/JJ	.	.	.
16FF#/LL	.	.	.
16D/	.	.	.
.	6a#X 6A#X~/	.	.
16BB/	.	.	[
16FF#/JJ	.	.	.
=85	=85	=85	=85
*ped	*	*	*
16EE/LL	4b 4g 4c#X 4B/	4ryy	.
16G/	.	.	.
16C#X/	.	.	.
16BB/JJ	.	.	.
*	*	*8va	*
!	!	!	!LO:HP:t=stringendo e cresscendo
8EE/)	(4bbb/	16eee\LL	<
.	.	16ggg\	.
8r	.	16eee\	.
.	.	16bb\JJ	.
*	*	*X8va	*
4g: 4c#X: 4B: 4E:\	4bb/)	16ee\LL	.
.	.	16gg\	.
.	.	16ee\	.
.	.	16b\JJ	.
*Xped	*	*	*
!LO:TUP:a:problem=klamra łukowa	!LO:TUP:a:problem=klamra łukowa	!	!
12E~\L	12cc#XL 12c#~/	4g\	.
12F#X~\	12dd 12d~/	.	.
12G~\J	12eeJ 12e~/	.	.
!!LO:PB:g=original
=86	=86	=86	=86
*ped	*	*	*
16cnLL 16A 16D#X\	6ff#X 6ccn 6f#X\	4ryy	.
(16AA\	.	.	.
16D#\	.	.	.
.	12r	.	.
16F#X\JJ	.	.	.
*	*	*8va	*
8c\)	4ccccn/	(16ddd#X\LL	.
.	.	16fff#X\	.
8r	.	16ddd#\	.
.	.	16ccc\JJ	.
*clefG2	*	*X8va	*
4cc: 4f#X: 4d#X: 4A:/	4ccc/	16dd#\LL	.
.	.	16ff#\	.
.	.	16dd#\	.
.	.	16cc\JJ)	.
*clefF4	*	*	*
*Xped	*	*	*
!LO:TUP:a:problem=klamra łukowa	!LO:TUP:a:problem=klamra łukowa	!	!
12A~\L	12ff#L 12f#~/	4cc\	.
12B~\	12gg 12g~/	.	.
12c~\J	12aaJ 12a~/	.	.
=87	=87	=87	=87
*ped	*	*	*
16fnLL 16d 16G#X\	8bb 8ffn 8b\	4ryy	.
(16GG#X\	.	.	.
16D\	8r	.	.
16F\JJ	.	.	.
*	*v	*v	*
*	*8va	*
*	*^	*
8B\)	4dddd/	16fff\LL	.
.	.	16bbb\	.
8r	.	16fff\	.
.	.	16ddd\JJ	.
*	*v	*v	*
*	*X8va	*
*	*^	*
16r	4ddd/	16ff\LL	.
(16c#X\LL	.	16bb\	.
16d\	.	16ff\	.
16e\JJ	.	16dd\JJ	.
*Xped	*	*	*
!	!LO:TUP:a:problem=klamra łukowa	!	!
8f 8G#X\)	[<4ff/	12aa#XL 12a#X~>\	.
.	.	12bb 12b~>\	.
8r	.	.	.
.	.	12ccc#XJ 12cc#X~>\	.
=88	=88	=88	=88
16r	8ddd 8ff] 8dd\	4ryy	.
*ped	*	*	*
(16C#X\LL	.	.	.
16D\	8r	.	.
16E\JJ	.	.	.
*Xped	*	*	*
!	!LO:TUP:a:problem=klamra łukowa	!	!
8Fn 8GG#X/)	12a#XL 12A#X~/	[>4fn\	<
.	12b 12B~/	.	.
8r	.	.	.
.	12cc#XJ 12c#X~/	.	.
16r	8dd 8f] 8d/	4ryy	.
*ped	*	*	*
16CC#X/LL	.	.	.
16DD/	8r	.	.
16EE/JJ	.	.	.
*	*clefF4	*	*
!	!LO:TUP:a:problem=klamra łukowa	!	!
8FFn 8GGG#X/	12A#XL 12AA#X~/	[4Fn\	.
*Xped	*	*	*
.	12B 12BB~/	.	.
8r	.	.	.
.	12c#XJ 12C#X~/	.	[
!!LO:LB:g=original
=89	=89	=89	=89
16r	8d 8F] 8D\	4ryy	ff
*ped	*	*	*
(16GGGn/LL	.	.	.
16DD/	8r	.	.
16FF/JJ	.	.	.
*	*clefG2	*	*
*	*v	*v	*
*	*8va	*
*	*^	*
8BB/)	4dddd/	(16fffn\LL	.
.	.	16bbb\	.
8r	.	16fff\	.
.	.	16ddd\JJ	.
*	*v	*v	*
*	*X8va	*
*	*^	*
4B: 4F: 4D: 4GG:\	4ddd/	16ff\LL	.
.	.	16bb\	.
.	.	16ff\	.
.	.	16dd\JJ	.
4r	4dd/	16fn\LL	.
.	.	16b\	.
.	.	16f\	.
.	.	16d\JJ)	.
*	*v	*v	*
=90	=90	=90
16r	8dd\	.
(16GGG/LL	.	.
16DD/	8r	.
16EE#X/JJ	.	.
16BB/LL	4r	.
16GG/	.	.
16D/	.	.
16E#X/JJ	.	.
8B\)	16r	.
.	(>16d/LL	.
8r	16e#X/	.
.	16b/JJ	.
4r	16dd\LL)	.
.	(16dd\	.
.	16ee#X\	.
.	16bb\JJ	.
=91	=91	=91
4r	16ddd\LL)	.
.	(16ddd\	.
.	16bb\	.
.	16ff#X\JJ	.
*clefG2	*	*
16r	8dd\)	.
(16b/LL	.	.
16d/	8r	.
16B/JJ	.	.
*ped	*	*
8F#X/)	16r	.
.	16dd/LL	.
8r	16b/	.
.	16f#X/JJ	.
*clefF4	*	*
16r	8d/	.
(16B\LL	.	.
16D\	8r	.
*Xped	*	*
16BB\JJ)	.	.
=92	=92	=92
*^	*	*
*ped	*	*	*
!	!	!	!LO:HP:t=dimin.
16EE#X/LL	4EE#X\	4ryy	>
16BB/	.	.	.
16D/	.	.	.
16E#X/JJ	.	.	.
4ryy	4ryy	16G#X/LL	.
.	.	16B/	.
.	.	16d/	.
.	.	16g#X/JJ	.
4E#X/	16E#X\LL	4ryy	.
.	16B\	.	.
.	16d\	.	.
.	16e#X\JJ	.	.
4ryy	4ryy	16g#\LL	.
.	.	16b\	.
.	.	16dd\	.
*Xped	*	*	*
.	.	16gg#X\JJ	.
*	*	*	*
!!LO:LB:g=original
=93	=93	=93	=93
*ped	*	*	*
!	!	!	!
16EEn/LL	N(>4EEn\	4ryy	.
!LO:TX:i:t=una corda	!	!	!
16FF#X/	.	.	.
16AA#X/	.	.	.
16C#X/JJ	.	.	.
4ryy	4E\	16r	.
.	.	16F#X/LL	.
.	.	16A#X/	.
.	.	16c#X/JJ	.
16r	2ryy	4.f#X 4.F#/N)	.
(16e\LL	.	.	.
16A#X\	.	.	.
16F#X\JJ	.	.	.
16E/LL	.	.	.
16E/	.	.	.
16AA#X/	.	8f# 8F#/	.
*Xped	*	*	*
16FF#/JJ)	.	.	.
*v	*v	*	*
=94	=94	=94
*	*^	*
16r	2r	[1f#X [1F#X	.
*ped	*	*	*
(16DD#X/LL	.	.	.
16FF#X/	.	.	.
16BB/JJ	.	.	.
16D#X\LL	.	.	.
16D#\	.	.	.
16F#X\	.	.	.
16B\JJ	.	.	.
8d#X\)	16r	.	.
.	(<16f#/LL	.	.
8r	16b/	.	.
.	16dd#X/JJ	.	.
4r	16ff#X/LL)	.	.
.	(<16ff#/	.	.
.	16bb/	.	.
.	16ddd/JJ	.	.
=95	=95	=95	=95
16r	8fff#X/)	2f#] 2F#\]	.
*ped	*	*	*
(<16DDn/LL	.	.	.
16FF#X/	8r	.	.
16GG#X/JJ	.	.	.
16D\LL)	4r	.	.
(16D\	.	.	.
16F#X\	.	.	.
16G#X\JJ)	.	.	.
!	!	!	!
.	(8qF#X/	.	.
!	!	!	!LO:DY:a
16r	4.f#X/)	2ryy	pp
16e#X\LL	.	.	.
16B\	.	.	.
16G#X\JJ	.	.	.
16D/LL	.	.	.
16E#X/	.	.	.
16BB/	8f# 8F#y/	.	.
*Xped	*	*	*
16GG#/JJ	.	.	.
*	*v	*v	*
!!LO:LB:g=original
=96	=96	=96
*^	*	*
*ped	*	*	*
(16CC#X/LL	2.ryy	4f#X 4e 4F#X^/	.
16FF#X/	.	.	.
16AA#X/	.	.	.
16E/JJ	.	.	.
4F##X^\)	.	16r	.
.	.	(>16e/LL	.
.	.	16a#X/	.
.	.	16cc#X/JJ	.
4G#X^\	.	16ee/LL	.
.	.	16cc#/	.
.	.	16a#/	.
.	.	16e/JJ	.
4A#X^/	16A#\LL	[4f# [4e/)	.
.	16F##\	.	.
.	16C#X\	.	.
*	*Xped	*	*
.	16FF#\JJ	.	.
*v	*v	*	*
=97||	=97||	=97||
*k[f#c#g#d#a#]	*k[f#c#g#d#a#]	*
*	*^	*
*ped	*	*	*
4BBB/	2f#/]	12e]L 12F#\	.
.	.	12d#\	.
.	.	12B\J	.
!	!LO:TX:a:i:t=mezza voce	!	!
(4BBB/	.	12F#\L	.
.	.	12d#\	.
.	.	12B\J	.
4BB/	[2b/	12B\L	.
.	.	12f#\	.
.	.	12d#\J	.
4C#/)	.	12B\L	.
.	.	12f#\	.
.	.	12d#\J	.
=98	=98	=98	=98
(4BB/	4b/]	12B\L	<
.	.	12f#\	.
.	.	12d#\J	.
4AA#/	(4b/	12B\L	.
.	.	12f#\	.
.	.	12d#\J	.
4GG#/	4ee/	12e\L	.
.	.	12b\	.
.	.	12g#\J	.
4FF#/)	4dd#/)	12d#\L	.
.	.	12b#X\	.
.	.	12an\J	[
=99	=99	=99	=99
(4EE/	4r	4ryy	.
!	!LO:TX:b:i:t=poco espress.	!	!
4DD#/	(4g#/	12G#\L	.
.	.	12e\	.
.	.	12c#\J	.
4CC#/	4a#/	12A#\L	.
.	.	12f#\	.
.	.	12e\J	.
4BBB/)	4b/	12B\L	.
.	.	12f#\	.
.	.	12e\J	.
!!LO:LB:g=original
=100	=100	=100	=100
*ped	*	*	*
(4AAA#/	2cc#/)	12c#\L	>
.	.	12f#\	.
.	.	12e\J	.
4CC#/	.	12c#\L	.
.	.	12f#\	.
.	.	12e\J	.
4AAA#/	[2f#/	12F#\L	.
.	.	12e\	.
.	.	12c#\J	.
*Xped	*	*	*
4FFF#/)	.	12F#\L	.
.	.	12e\	.
.	.	12c#\J	]
=101	=101	=101	=101
*ped	*	*	*
(4BBB/	2f#/]	12F#\L	.
.	.	12d#\	.
.	.	12B\J	.
4CC#/	.	12F#\L	.
.	.	12d#\	.
!	!	!	!LO:HP:t=cresc. un poco
.	.	12B\J	<
4BBB/	[2b/	12B\L	.
.	.	12f#\	.
.	.	12d#\J	.
*Xped	*	*	*
!	!	!	!
4AAAn/)	.	12B\L	.
.	.	12f#\	.
.	.	12d#\J	.
=102	=102	=102	=102
*ped	*	*	*
(4GGG#/	4b/]	12B\L	.
.	.	12f#\	.
.	.	12dn\J	.
4DDn/	(4b/	12B\L	.
.	.	12f#\	.
.	.	12d\J	.
4BBB/	4gg#/	12g#\L	.
.	.	12ddn\	.
.	.	12b\J	.
*Xped	*	*	*
4GGG#/)	[4ff#/)	12f#\L	.
.	.	12dd\	.
.	.	12b\J	.
=103	=103	=103	=103
*ped	*	*	*
(4CC#/	4ff#/]	12f#\L	.
.	.	12b\	.
.	.	12g#\J	.
4GG#/	(4ee#X/	12e#X\L	.
.	.	12b\	.
.	.	12g#\J	.
4EE#X/	4b/	12B\L	.
.	.	12g#\	.
.	.	12dn\J	.
4CC#/)	[4ddn/)	12d\L	.
*Xped	*	*	*
.	.	12b\	.
.	.	12g#\J	.
=104	=104	=104	=104
*ped	*	*	*
(4EE#X/	4dd/]	12dn\L	.
.	.	12b\	.
.	.	12g#\J	.
4BB/	(4ddn/	12d\L	.
.	.	12b\	.
.	.	12g#\J	.
4GG#/	4cc#/	12c#\L	.
.	.	12b\	.
.	.	12g#\J	.
4EE#/)	4b/)	12B\L	.
.	.	12g#\	.
*Xped	*	*	*
.	.	12d\J	.
!!LO:PB:g=original
=105	=105	=105	=105
!LO:TX:i:t=tutte corde	!	!	!
8EEn/L	4r	2ryy	.
(<16En/L	.	.	.
16F#/JJ	.	.	.
16E\LL	(4f#/	.	<
16F#\	.	.	.
16E\	.	.	.
16F#\JJ	.	.	.
16E\LL	4b#X/	16B#X\LL	.
16F#\	.	16f#\	.
16E\	.	16g#\	.
16F#\JJ	.	16f#\JJ	.
16E\LL	4cc#/	16c#\LL	.
16F#\	.	16f#\	.
16E\	.	16g#\	.
16F#\JJ)	.	16f#\JJ	[
=106	=106	=106	=106
*ped	*	*	*
(16D#/LL	4ff# 4f#\)	4ryy	sfz
16F#/	.	.	.
*clefG2	*	*	*
16B/	.	.	.
16d#/JJ	.	.	.
*	*	*8va	*
!	!LO:TX:b:i:t=legg.	!	!
8f#'/L)	4bbb/	(16fff#\LL	.
.	.	16ggg#\	.
8b'/J	.	16fff#\	.
.	.	16bb\JJ	.
*	*	*X8va	*
8dd#'\	4bb/	16ff#\LL	.
.	.	16gg#\	.
8r	.	16ff#\	.
.	.	16b\JJ	.
4r	4b/	16f#\LL	.
.	.	16g#\	.
.	.	16f#\	.
*Xped	*	*	*
.	.	16B\JJ)	.
*clefF4	*	*	*
=107	=107	=107	=107
(16EE/LL	4r	2ryy	.
16E/	.	.	.
16F#/	.	.	.
16E/JJ	.	.	.
16F#\LL	(4f#/	.	.
16E\	.	.	.
16F#\	.	.	.
16E\JJ	.	.	.
16F#\LL	4b#X/	16B#X\LL	.
16E\	.	16f#\	.
16F#\	.	16g#\	.
16E\JJ	.	16f#\JJ	.
16F#\LL	4ee/	16c#\LL	.
16E\	.	16f#\	.
16F#\	.	16g#\	.
16E\JJ)	.	16f#\JJ	.
!!LO:LB:g=original
=108	=108	=108	=108
*ped	*	*	*
(16D#/LL	4ff#\ 4f#\)	4ryy	.
16F#/	.	.	.
*clefG2	*	*	*
16B/	.	.	.
16d#/JJ	.	.	.
*	*	*8va	*
8f#'/L)	4bbb/	(16fff#\LL	.
.	.	16ggg#\	.
8b'/J	.	16fff#\	.
.	.	16bb\JJ	.
*	*	*X8va	*
8dd#'\	4bb/	16ff#\LL	.
.	.	16gg#\	.
8r	.	16ff#\	.
.	.	16b\JJ	.
4r	4b/	16f#\LL	.
.	.	16g#\	.
*Xped	*	*	*
.	.	16f#\	.
.	.	16B\JJ)	.
*clefF4	*	*	*
=109	=109	=109	=109
(16GG#\LL	4r	2ryy	.
16B\	.	.	.
16c#\	.	.	.
16B\JJ	.	.	.
16G#\LL	(4ff# 4f#\	.	.
16B\	.	.	.
16c#\	.	.	.
16B\JJ	.	.	.
16G#\LL	4dd#/	16d#\LL	<
16B\	.	16b\	.
16c#\	.	16cc#\	.
16B\JJ	.	16b\JJ	.
16G#\LL	4ee/	16e\LL	.
16B\	.	16b\	.
16c#\	.	16cc#\	.
16B\JJ)	.	16b\JJ	.
*clefG2	*	*	*
=110	=110	=110	=110
*ped	*	*	*
(<16An/LL	4ccc# 4cc#\)	4ryy	[ sfz
16c#/	.	.	.
16e/	.	.	.
16an/JJ	.	.	.
*	*	*8va	*
8cc#\L)	4eeee/	(16aaan\LL	.
.	.	16cccc#\	.
8ee'\J	.	16aaa\	.
.	.	16eee\JJ	.
*	*	*X8va	*
8ccc#'\	4eee/	16aa\LL	.
.	.	16ccc#\	.
8r	.	16aa\	.
.	.	16ee\JJ	.
4r	4ee/	16an\LL	.
.	.	16cc#\	.
.	.	16a\	.
*Xped	*	*	*
.	.	16e\JJ)	.
*clefF4	*	*	*
!!LO:LB:g=original
=111	=111	=111	=111
(16GG#\LL	4r	2ryy	.
16B\	.	.	.
16c#\	.	.	.
16B\JJ	.	.	.
16G#\LL	(4ff# 4f#\	.	.
16B\	.	.	.
16c#\	.	.	.
16B\JJ	.	.	.
16G#\LL	4dd#/	16d#\LL	<
16B\	.	16b\	.
16c#\	.	16cc#\	.
16B\JJ	.	16b\JJ	.
16G#\LL	4ee/	16e\LL	.
16B\	.	16b\	.
16c#\	.	16cc#\	.
16B\JJ)	.	16b\JJ	.
*clefG2	*	*	*
=112	=112	=112	=112
*ped	*	*	*
(<16Gn/LL	4ccc# 4cc#\)	4ryy	[
16B/	.	.	.
16e/	.	.	.
16gn/JJ	.	.	.
*	*	*8va	*
8b\L)	4eeee/	(16bbb\LL	.
.	.	16cccc#\	.
8ee'\J	.	16bbb\	.
.	.	16eee\JJ	.
*	*	*X8va	*
8ggn'\	4eee/	16bb\LL	.
.	.	16ccc#\	.
8r	.	16bb\	.
.	.	16ee\JJ	.
4r	4ee/	16b\LL	.
.	.	16cc#\	.
*Xped	*	*	*
.	.	16b\	.
.	.	[16e\JJ)	.
*clefF4	*	*	*
=113	=113	=113	=113
!	!LO:TX:b:i:t=con gran espress.	!	!
12r	(2ee/	12e\L]	.
*ped	*	*	*
(12F#\L	.	12cc#\	.
12C#\J	.	12a#\J	.
12FF#/L	.	12e\L	.
*Xped	*	*	*
12F#/	.	12cc#\	.
12C#/J	.	12a#\J	.
*ped	*	*	*
12FF#/L	2dd#/)	12d#\L	.
12F#/	.	12b\	.
12D#/J	.	12f#\J	.
12FF#/L	.	12d#\L	.
*Xped	*	*	*
12F#/	.	12b\	.
12D#/J)	.	12f#\J	.
!!LO:LB:g=original
=114	=114	=114	=114
*ped	*	*	*
(>12EE#X/L	(2gg#/	12g#\L	.
12E#X/	.	12ddn\	.
12Dn/J	.	12b\J	.
12EE#/L	.	12g#\L	.
12E#/	.	12dd\	.
12D/J	.	12b\J	.
12EE#/L	(2g#/)	12G#\L	.
12E#/	.	12dn\	.
12D/J	.	12B\J	.
12EE#/L	.	12G#\L	.
12E#/	.	12d\	.
*Xped	*	*	*
12D/J)	.	12B\J	.
=115	=115	=115	=115
*ped	*	*	*
(>12FF#/L	2b/)	12B\L	.
12F#/	.	12f#\	.
12D#X/J	.	12d#X\J	.
12FF#/L	.	12B\L	<
*Xped	*	*	*
12F#/	.	12f#\	.
12D#/J	.	12d#\J	.
*ped	*	*	*
12GG#/L	[2b^/	12B\L	.
12G#/	.	12e#X\	.
12Dn/J	.	12dn\J	.
12GG#/L	.	12B\L	[
*Xped	*	*	*
12G#/	.	12e#\	.
12D/J	.	12d\J	.
=116	=116	=116	=116
12FF#/L)	2b/]	12B\L	.
(>12F#/	.	12f#\	.
12D#X/J	.	12d#X\J	.
12FF#/L	.	12B\L	<
12F#/	.	12f#\	.
12D#/J	.	12d#\J	.
*ped	*	*	*
12EE#X/L	2b^/	12B\L	.
12E#X/	.	12g#\	.
12Dn/J	.	12dn\J	.
12EE#/L	.	12B\L	.
*Xped	*	*	*
12E#/	.	12g#\	.
12D/J	.	12d\J	[
=117	=117	=117	=117
*ped	*	*	*
12FF#/L)	4r	4ryy	p
(>12FF#/	.	.	.
12DD#X/J	.	.	.
*	*clefF4	*	*
!LO:TX:i:t=espress.	!	!	!
12FFF#/L	(4d#X/	12D#X\L	<
12FF#/	.	12B\	.
12DD#/J	.	12F#\J	.
12FFF#/L	4g#/	12G#\L	.
*Xped	*	*	*
12FF#/	.	12d#\	.
12DD#/J	.	12B\J	.
12FFF#/L	4f#/	12F#\L	.
12FF#/	.	12d#\	.
12DD#/J	.	12B\J	[
!!LO:LB:g=original
=118	=118	=118	=118
12FFF#/L)	4e#X/)	12E#X\L	.
12FF#/	.	12c#\	.
12CC#/J	.	12B\J	.
12FFF#/L	(4en/	12En\L	.
12FF#/	.	12c#\	.
12CC#/J	.	12B\J	.
12FFF#/L	4d#/	12D#\L	.
12FF#/	.	12A#\	.
12DD#/J	.	12F#\J	.
12FFF#/L	4c#/	12C#\L	.
12FF#/	.	12A#\	.
12EE/J	.	12F#\J	.
=119	=119	=119	=119
*^	*	*	*
*ped	*	*	*	*
(16GGGn/LL	[4GGGn\	4B 4E 4BB\)	2ryy	pp <
16BBB/	.	.	.	.
16CC#/	.	.	.	.
16DD#/JJ	.	.	.	.
16EE/LL	8GGG\]	4r	.	.
16DD#/	.	.	.	.
16EE/	8ryy	.	.	.
16FF#/JJ	.	.	.	[
*	*	*clefG2	*	*
16GGn/LL)	2ryy	4r	[2B [2E [2BB^>\	.
(16GG/	.	.	.	.
16BB/	.	.	.	.
16E/JJ	.	.	.	.
8Gn\)	.	16r	.	.
.	.	(16B/LL	.	.
8r	.	16b/	.	.
.	.	16b/JJ	.	.
*v	*v	*	*	*
=120	=120	=120	=120
16r	8ccc#/)	2B] 2E] 2BB\]	.
(16Gn\LL	.	.	.
16E\	8r	.	.
16BB\JJ	.	.	.
16GGn/LL	4r	.	.
16GG/	.	.	.
16EE/	.	.	.
16BBB/JJ	.	.	.
*Xped	*clefF4	*	*
!	!LO:TUP:a	!	!
16GGGn/LL	(6B 6BB~/	2E\	<
16EE/	.	.	.
16CCn/	.	.	.
.	6cn 6Cn~/	.	.
16BBB/JJ	.	.	.
16GGG/LL	.	.	.
16EE/	.	.	.
.	6dn 6Dn~/	.	.
16CC/	.	.	[
16BBB/JJ	.	.	.
!!LO:PB:g=original
=121	=121	=121	=121
*ped	*	*	*
16FFF#/LL	4e 4cn 4An 4E\)	4ryy	sfz
16AAn/	.	.	.
16EE/	.	.	.
16CCn/JJ	.	.	.
*	*clefG2	*	*
8FFF#/)	(4eee/	16aan\LL	.
.	.	16cccn\	.
8r	.	16aa\	.
.	.	16ee\JJ	.
4An: 4E: 4Cn: 4FF#:/	4ee/	16an\LL	.
.	.	16ccn\	.
.	.	16a\	.
.	.	16e\JJ	.
4r	4e/	16A\LL	.
.	.	16cn\	.
.	.	16A\	.
.	.	16E\JJ	.
=122	=122	=122	=122
16r	8e/)	4ryy	.
(16An\LL	.	.	.
16E\	8r	.	.
16Cn\JJ	.	.	.
*	*clefF4	*	*
16FF#/LL	2.An/	(>4e 4E\	>
16AAn/	.	.	.
16EE/	.	.	.
16CCn/JJ	.	.	.
*Xped	*	*	*
16FFF#/LL	.	4dn 4Dn\	.
16AA/	.	.	.
16EE/	.	.	.
16CC/JJ	.	.	.
16FFF#/LL	.	4cn 4Cn\	.
16AA/	.	.	]
16EE/	.	.	.
16DD#/JJ	.	.	.
=123	=123	=123	=123
*ped	*	*	*
16EEE#X/LL)	4B 4G#X 4BB\)	2ryy	<
(<16AAA#X/	.	.	.
16BBB/	.	.	.
16CC#/JJ	.	.	.
16DDn/LL	4r	.	.
16CC#/	.	.	.
16DD/	.	.	.
16EEn/JJ	.	.	[
*	*clefG2	*	*
16EE#X\LL)	4r	[2B [2G# [2BB</	.
(16EE#\	.	.	.
16BB\	.	.	.
16Dn\JJ	.	.	.
8G#\)	16r	.	.
.	(16B/LL	.	.
8r	16b/	.	.
.	16b/JJ	.	.
!!LO:LB:g=original
=124	=124	=124	=124
16r	8bb/)	2B] 2G#] 2BB</]	.
(16G#X\LL	.	.	.
16Dn\	8r	.	.
16BB\JJ	.	.	.
16EE#X\LL	4r	.	.
16GG#\	.	.	.
16DDn\	.	.	.
16BBB\JJ	.	.	.
*Xped	*clefF4	*	*
!	!LO:TUP:a	!	!
16EEE#X/LL	(6B 6BB~/	2G#\	<
16GG#/	.	.	.
16DD/	.	.	.
.	6cn 6Cn~/	.	.
16BBB/JJ	.	.	.
16EEE#/LL	.	.	.
16GG#/	.	.	.
.	6dn 6Dn~/	.	.
16DD/	.	.	[
16BBB/JJ	.	.	.
=125	=125	=125	=125
*ped	*	*	*
16EEEn/LL	4en 4B^ 4G# 4En\)	4ryy	.
16GG#/	.	.	.
16BBB/	.	.	.
16GGG#/JJ	.	.	.
*	*clefG2	*	*
8EEE/)	(4eee/	16gg#\LL	.
.	.	16bb\	.
8r	.	16gg#\	.
.	.	16ee\JJ	.
4G#: 4BB: 4EE:/	4ee/	16g#\LL	.
.	.	16b\	.
.	.	16g#\	.
.	.	16e\JJ	.
4r	4e/	16G#\LL	.
.	.	16B\	.
.	.	16G#\	.
.	.	16E\JJ	.
=126	=126	=126	=126
16r	8e/)	4ryy	.
(>16G#/LL	.	.	.
16BB/	8r	.	.
16GG#/JJ	.	.	.
*	*clefF4	*	*
16EE/LL	[2.G#/	(>4e 4E\	>
16GG#/	.	.	.
16BBB/	.	.	.
16GGG#/JJ	.	.	.
*Xped	*	*	*
16EEE/LL	.	4dn 4Dn\	.
16GG#/	.	.	.
16BBB/	.	.	.
16GGG#/JJ	.	.	.
16EEE/LL	.	4cn 4Cn\	]
16GG#/	.	.	.
16BBB/	.	.	.
16GGG#/JJ	.	.	.
!!LO:LB:g=original
=127	=127	=127	=127
*^	*	*	*
*ped	*	*	*	*
(<16EEEn/LL)	16EEEn\	4B 4G#] 4BB\)	2ryy	<
16AAA#X/	2.ryy	.	.	.
16BBB/	.	.	.	.
16CC#/JJ	.	.	.	.
16DDn\LL	.	4r	.	.
16CC#\	.	.	.	.
16DD\	.	.	.	.
16EE\JJ	.	.	.	[
*	*	*clefG2	*	*
16EE#X\LL)	.	4r	[2B [2G# [2BB<^>/	.
(16EE#\	.	.	.	.
16BB\	.	.	.	.
16Dn\JJ	.	.	.	.
8G#\)	.	16r	.	.
.	8.ryy	(16B/LL	.	.
8r	.	16b/	.	.
.	.	16b/JJ	.	.
*v	*v	*	*	*
=128	=128	=128	=128
16r	8bb/)	2B] 2G#] 2BB</]	.
(16Fn\LL	.	.	.
16BB\	8r	.	.
16GG#\JJ	.	.	.
16DDn\LL	4r	.	.
16FF#\	.	.	.
16BBB\	.	.	.
16GGG#\JJ	.	.	.
*Xped	*clefF4	*	*
!	!LO:TUP:a	!	!
16DDDn/LL	(6B 6BB~/	2G#\	.
16FF#/	.	.	.
16BBB/	.	.	.
.	6cn 6Cn~/	.	.
16GGG#/JJ	.	.	.
16DDD/LL	.	.	.
16FF#/	.	.	.
.	6dn 6Dn~/	.	.
16BBB/	.	.	.
16GGG#/JJ	.	.	.
=129	=129	=129	=129
*8ba	*	*	*
*ped	*	*	*
16CCC#/LL	4e 4A#X 4Gn 4E\)	4ryy	.
16EE/	.	.	.
16AAA#X/	.	.	.
16GGGn/JJ	.	.	.
8CCC#/)	(4g#/	16Bn\LL	.
.	.	16c#X\	.
*X8ba	*	*	*
8r	.	16B\	.
.	.	16G\JJ	.
4e: 4A#X: 4Gn: 4C#:\	4G/	16BBn\LL	.
.	.	16C#X\	.
.	.	16BB\	.
.	.	16GG#\JJ	.
4r	4GGn/	16BBB\LL	.
.	.	16CC#X\	.
.	.	16BBB\	.
.	.	16GGG#\JJ	.
!!LO:LB:g=original
=130	=130	=130	=130
*	*clefG2	*	*
16r	8e/)	4ryy	.
(>16E/LL	.	.	.
16AA#X/	8r	.	.
16GGn/JJ	.	.	.
*	*clefF4	*	*
!	!	!	!LO:HP:t=cresc. un poco
16CC#/LL	2.Gn/	(>4e 4E\	<
16EE/	.	.	.
16AAA#X/	.	.	.
16GGGn/JJ	.	.	.
*8ba	*	*	*
!	!	!	!
16CCC#/LL	.	4d# 4D#\	.
*Xped	*	*	*
16EE/	.	.	.
16AAA#X/	.	.	.
16GGG/JJ	.	.	.
16CCC#/LL	.	4e 4E\	.
16EE/	.	.	.
16AAA#/	.	.	.
16GGG/JJ	.	.	.
=131	=131	=131	=131
*ped	*	*	*
16BBBB/LL	4gn 4e 4B 4Gn\)	4ryy	.
16BBB/	.	.	.
16GGGn/	.	.	.
16EEE/JJ	.	.	.
*	*clefG2	*	*
8BBBB/)	(4eee/	16ggn\LL	.
.	.	16bb\	.
*X8ba	*	*	*
8r	.	16gg\	.
.	.	16ee\JJ	.
4e: 4Gn: 4E: 4BB:\	4ee/	16gn\LL	.
.	.	16b\	.
.	.	16g\	.
.	.	16e\JJ	.
4r	4e/	16Gn\LL	.
.	.	16B\	.
.	.	16G\	.
.	.	16E\JJ	.
=132	=132	=132	=132
16r	8e/)	4ryy	.
(>16E/LL	.	.	.
16BB/	8r	.	.
16GGn/JJ	.	.	.
*	*clefF4	*	*
16EE/LL	2.Gn/	(>4B 4BB\	<
16GG/	.	.	.
16EE/	.	.	.
16BBB/JJ	.	.	.
*Xped	*	*	*
16GGGn/LL	.	4A# 4AA#\	.
16BBB/	.	.	.
16GGG/	.	.	.
16EEE/JJ	.	.	.
*8ba	*	*	*
!	!	!	!
16BBBB/LL	.	4B 4BB\)	.
16BBB/	.	.	[
16GGG/	.	.	.
16EEE/JJ	.	.	.
*	*v	*v	*
!!LO:LB:g=original
=133	=133	=133
*ped	*	*
8AAAA#X/)	8e 8c# 8Gn 8E\	.
*X8ba	*	*
8r	8r	.
4r	4r	.
(2AAA#tt/	(>[2Gn [2E [2C# [2GGn/	.
*Xped	*	*
=134	=134	=134
1AAA#ttt	2G] 2E] 2C#] 2GG/]	>
!	!LO:S:s=2:s=3:note:problem=note-level slur	!
.	[2F# (2E (2C# [2FF#/	]]
16qqGGG#ttt/LL	.	.
16qqAAA#ttt/JJ	.	.
=135	=135	=135
8BBB/)	8F#] 8D#) 8BB) 8FF#/])	.
8r	8r	.
*ped	*	*
!	!	!LO:DY:rj
(12BBB/L	(12FF#/L	pp
!	!LO:TX:b:i:t=una corda	!
12DD#/	12BB/	.
12FF#/J	12D#/J	.
12BB\L	12F#\L	.
12D#\	12B\	.
12F#\J	12d#\J	.
12B\L	12f#\L	.
12F#\	12d#\	.
12D#\J	12B\J	.
=136	=136	=136
12BB\L	12F#\L	.
12D#\	12B\	.
12F#\J	12d#\J	.
*clefG2	*clefG2	*
12B/L	12f#/L	.
12d#/	12b/	.
12f#/J	12dd#/J	.
12b/L	12ff#\L	.
12d#/	12b\	.
12f#/J	12dd#\J	.
12b\L	12ff#\L	.
12dd#\	12bb\	.
12ff#\J	12ddd#\J	.
=137	=137	=137
4bb\)	4fff#\)	.
4r	4r	.
*clefF4	*	*
[2B [2F# [2BB\	[2dd# [2b [2f# [2d#/	ppp
=138	=138	=138
*Xped	*	*
1B] 1F#] 1BB]	1dd#] 1b] 1f#] 1d#;]	.
==	==	==
*-	*-	*-
!!!system-decoration: {(s1,s2)}
!!!RDF**kern: > = above
!!!RDF**kern: < = below
!!!RDF**kern: N = linked
!!!ENC: Filip Voros
!!!END: 2022-03-05
!!!ENC: Marta Lawrence
!!!END: 2022-04-10
!!!YEC: Copyright 2022 Narodowy Instytut Fryderyka Chopina (https://polishscores.org)
!!!YEM: License CC-BY-4.0 (https://creativecommons.org/licenses/by/4.0)
